Newaita-dark/actions/scalable/exchange-positions.svg

<?xml version="1.0" encoding="UTF-8"?>
<svg xmlns="http://www.w3.org/2000/svg" xmlns:xlink="http://www.w3.org/1999/xlink" width="512pt" height="512pt" viewBox="0 0 512 512" version="1.1">
<g id="surface1">
<path style=" stroke:none;fill-rule:nonzero;fill:rgb(47.058824%,56.470591%,61.176473%);fill-opacity:1;" d="M 254.023438 88.675781 L 254.023438 131.011719 C 324.390625 131.011719 381.035156 187.660156 381.035156 258.023438 L 423.375 258.023438 C 423.375 164.203125 347.84375 88.675781 254.023438 88.675781 Z M 84.675781 258.023438 C 84.675781 351.84375 160.203125 427.375 254.023438 427.375 L 254.023438 385.035156 C 183.660156 385.035156 127.011719 328.390625 127.011719 258.023438 Z M 84.675781 258.023438 "/>
<path style=" stroke:none;fill-rule:nonzero;fill:rgb(74.117649%,74.117649%,74.117649%);fill-opacity:1;" d="M 74.089844 46.335938 C 56.5 46.335938 42.335938 60.5 42.335938 78.089844 L 42.335938 162.765625 C 42.335938 180.355469 56.5 194.519531 74.089844 194.519531 L 158.765625 194.519531 C 176.355469 194.519531 190.519531 180.355469 190.519531 162.765625 L 190.519531 78.089844 C 190.519531 60.5 176.355469 46.335938 158.765625 46.335938 Z M 95.257812 78.089844 L 137.597656 78.089844 C 149.324219 78.089844 158.765625 87.53125 158.765625 99.257812 L 158.765625 141.597656 C 158.765625 153.324219 149.324219 162.765625 137.597656 162.765625 L 95.257812 162.765625 C 83.53125 162.765625 74.089844 153.324219 74.089844 141.597656 L 74.089844 99.257812 C 74.089844 87.53125 83.53125 78.089844 95.257812 78.089844 Z M 95.257812 78.089844 "/>
<path style=" stroke:none;fill-rule:nonzero;fill:rgb(74.117649%,74.117649%,74.117649%);fill-opacity:1;" d="M 349.285156 321.53125 C 331.691406 321.53125 317.53125 335.691406 317.53125 353.285156 L 317.53125 437.957031 C 317.53125 455.550781 331.691406 469.710938 349.285156 469.710938 L 433.957031 469.710938 C 451.550781 469.710938 465.710938 455.550781 465.710938 437.957031 L 465.710938 353.285156 C 465.710938 335.691406 451.550781 321.53125 433.957031 321.53125 Z M 370.453125 353.285156 L 412.789062 353.285156 C 424.515625 353.285156 433.957031 362.726562 433.957031 374.453125 L 433.957031 416.789062 C 433.957031 428.515625 424.515625 437.957031 412.789062 437.957031 L 370.453125 437.957031 C 358.722656 437.957031 349.285156 428.515625 349.285156 416.789062 L 349.285156 374.453125 C 349.285156 362.726562 358.722656 353.285156 370.453125 353.285156 Z M 370.453125 353.285156 "/>
</g>
</svg>

<svg xmlns="http://www.w3.org/2000/svg" width="512pt" height="512pt" viewBox="0 0 512 512"><path d="M254.023 88.676v42.336c70.368 0 127.012 56.648 127.012 127.011h42.34c0-93.82-75.531-169.347-169.352-169.347zM84.676 258.023c0 93.82 75.527 169.352 169.347 169.352v-42.34c-70.363 0-127.011-56.644-127.011-127.012zm0 0" fill="#78909c"/><path d="M74.09 46.336c-17.59 0-31.754 14.164-31.754 31.754v84.676c0 17.59 14.164 31.754 31.754 31.754h84.676c17.59 0 31.754-14.165 31.754-31.754V78.09c0-17.59-14.165-31.754-31.754-31.754zM95.258 78.09h42.34a21.122 21.122 0 0 1 21.168 21.168v42.34a21.122 21.122 0 0 1-21.168 21.168h-42.34a21.122 21.122 0 0 1-21.168-21.168v-42.34A21.122 21.122 0 0 1 95.258 78.09zm0 0M349.285 321.531a31.682 31.682 0 0 0-31.754 31.754v84.672a31.682 31.682 0 0 0 31.754 31.754h84.672a31.682 31.682 0 0 0 31.754-31.754v-84.672a31.682 31.682 0 0 0-31.754-31.754zm21.168 31.754h42.336a21.122 21.122 0 0 1 21.168 21.168v42.336a21.122 21.122 0 0 1-21.168 21.168h-42.336a21.12 21.12 0 0 1-21.168-21.168v-42.336a21.12 21.12 0 0 1 21.168-21.168zm0 0" fill="#bdbdbd"/></svg>
